assets/star.svg

<svg width="22" height="20" viewBox="0 0 22 20" fill="none" xmlns="http://www.w3.org/2000/svg">
<path d="M11 16.3025L4.53475 19.9215L5.9785 12.6541L0.538086 7.62346L7.89617 6.75079L11 0.0224609L14.1038 6.75079L21.4619 7.62346L16.0215 12.6541L17.4653 19.9215L11 16.3025Z" fill="#5BB5A2"/>
</svg>

<svg width="22" height="20" fill="none" xmlns="http://www.w3.org/2000/svg"><path d="m11 16.302-6.465 3.62 1.444-7.268-5.44-5.03 7.357-.873L11 .022l3.104 6.729 7.358.872-5.44 5.031 1.443 7.268L11 16.302Z" fill="#5BB5A2"/></svg>
